static/img/knowledge-logo.svg

<svg width="40" height="40" viewBox="0 0 47 47" fill="none" xmlns="http://www.w3.org/2000/svg">
<path d="M30.133 24.0602C30.4189 23.549 30.6421 23.0105 30.8008 22.4465H32.9001C33.3329 22.4465 33.6834 22.0959 33.6834 21.6631V19.0703C33.6834 18.6375 33.3329 18.2869 32.9001 18.2869H30.8008C30.6421 17.7249 30.4189 17.1864 30.133 16.6732L31.6174 15.1888C31.9229 14.8833 31.9229 14.3879 31.6174 14.0804L29.7864 12.2494C29.4809 11.9439 28.9854 11.9439 28.678 12.2494L27.1936 13.7338C26.6825 13.4479 26.1439 13.2247 25.5799 13.066V10.9667C25.5799 10.5339 25.2293 10.1834 24.7965 10.1834H22.2037C21.7709 10.1834 21.4204 10.5339 21.4204 10.9667V13.066C20.8583 13.2247 20.3198 13.4479 19.8087 13.7338L18.3243 12.2494C18.0188 11.9439 17.5233 11.9439 17.2159 12.2494L15.3849 14.0804C15.0794 14.3859 15.0794 14.8814 15.3849 15.1888L16.8693 16.6732C16.5833 17.1843 16.3601 17.7229 16.2015 18.2869H14.1002C13.6674 18.2869 13.3169 18.6375 13.3169 19.0703V21.6631C13.3169 22.0959 13.6674 22.4465 14.1002 22.4465H16.1995C16.3582 23.0085 16.5814 23.547 16.8673 24.0602L15.3829 25.5446C15.0774 25.8501 15.0774 26.3455 15.3829 26.653L17.2139 28.484C17.5194 28.7895 18.0149 28.7895 18.3223 28.484L19.8067 26.9996C20.3178 27.2855 20.8564 27.5087 21.4184 27.6674L21.4204 29.7667C21.4204 30.1995 21.7709 30.55 22.2037 30.55H24.7965C25.2293 30.55 25.5799 30.1995 25.5799 29.7667V27.6674C26.1419 27.5087 26.6805 27.2855 27.1936 26.9996L28.678 28.484C28.9835 28.7895 29.4789 28.7895 29.7864 28.484L31.6174 26.653C31.9229 26.3475 31.9229 25.852 31.6174 25.5446L30.133 24.0602ZM29.2302 26.8214L27.8613 25.4545C27.595 25.1901 27.1798 25.149 26.8684 25.3605C26.1928 25.8187 25.4467 26.1281 24.6496 26.2789C24.2795 26.3494 24.0132 26.6725 24.0132 27.0486V28.9834H22.987V27.0466C22.987 26.6706 22.7206 26.3475 22.3505 26.277C21.5535 26.1262 20.8074 25.8167 20.1337 25.3585C19.8223 25.147 19.4052 25.1881 19.1388 25.4525L17.7699 26.8194L17.0454 26.0968L18.4123 24.7279C18.6786 24.4616 18.7178 24.0464 18.5063 23.735C18.0481 23.0594 17.7387 22.3133 17.5879 21.5162C17.5174 21.1461 17.1942 20.8798 16.8182 20.8798H14.8834V19.8536H16.8202C17.1962 19.8536 17.5193 19.5873 17.5898 19.2172C17.7406 18.4201 18.05 17.674 18.5083 16.9984C18.7198 16.687 18.6806 16.2699 18.4143 16.0055L17.0473 14.6366L17.7719 13.9139L19.1408 15.2809C19.4071 15.5453 19.8223 15.5864 20.1356 15.3749C20.8093 14.9166 21.5554 14.6072 22.3525 14.4564C22.7226 14.3859 22.9889 14.0628 22.9889 13.6868L22.985 11.75H24.0112V13.6868C24.0112 14.0628 24.2775 14.3859 24.6476 14.4564C25.4447 14.6072 26.1908 14.9166 26.8664 15.3749C27.1778 15.5864 27.5949 15.5453 27.8593 15.2809L29.2282 13.9139L29.9508 14.6366L28.5839 16.0055C28.3195 16.2718 28.2784 16.687 28.4899 16.9984C28.9482 17.676 29.2575 18.422 29.4083 19.2172C29.4788 19.5873 29.802 19.8556 30.178 19.8556L32.1168 19.8536V20.8798H30.18C29.804 20.8798 29.4808 21.1481 29.4103 21.5182C29.2595 22.3132 28.9521 23.0594 28.4919 23.737C28.2804 24.0464 28.3215 24.4635 28.5859 24.7299L29.9528 26.0988L29.2302 26.8214ZM23.4999 16.4498C21.3399 16.4498 19.5833 18.2064 19.5833 20.3665C19.5833 22.5265 21.3399 24.2831 23.4999 24.2831C25.66 24.2831 27.4166 22.5265 27.4166 20.3665C27.4166 18.2064 25.66 16.4498 23.4999 16.4498ZM23.4999 22.7165C22.2035 22.7165 21.1499 21.6629 21.1499 20.3665C21.1499 19.0701 22.2035 18.0165 23.4999 18.0165C24.7963 18.0165 25.8499 19.0701 25.8499 20.3665C25.8499 21.6629 24.7963 22.7165 23.4999 22.7165ZM30.2093 32.7727C34.7683 30.2915 37.5999 25.525 37.5999 20.3371C37.5999 12.5489 31.2746 6.21154 23.4999 6.21154C15.7253 6.21154 9.39994 12.5489 9.39994 20.3371C9.39994 25.527 12.2317 30.2911 16.7906 32.7727C17.2018 32.996 17.2567 33.325 17.2391 34.4158L17.2371 35.3048H17.2332C16.8004 35.3048 16.4498 35.6554 16.4498 36.0882V42.2902C16.4361 42.4351 16.4577 42.5839 16.5262 42.7171C17.8638 45.3589 20.5349 47 23.4998 47C26.4646 47 29.1358 45.3589 30.4733 42.7171C30.5419 42.5839 30.5634 42.4351 30.5497 42.2902V36.0882C30.5497 35.6554 30.1991 35.3048 29.7664 35.3048H29.7644L29.7624 34.4158C29.7429 33.325 29.798 32.9979 30.2093 32.7727ZM23.4999 45.4335C21.5906 45.4335 19.832 44.5835 18.6629 43.1481H28.3371C27.168 44.5835 25.4093 45.4335 23.4999 45.4335ZM28.9835 41.5168H18.0169V36.8716H28.9835V41.5168ZM29.4614 31.3958C28.1571 32.1048 28.1786 33.4012 28.1963 34.441L28.2002 35.2498H18.8002L18.8041 34.441C18.8217 33.4012 18.8433 32.1067 17.5391 31.3958C13.4853 29.1888 10.9671 24.9527 10.9671 20.3369C10.9671 13.4125 16.5895 7.77796 23.5004 7.77796C30.4113 7.77796 36.0337 13.412 36.0337 20.3369C36.0337 24.9527 33.5149 29.1885 29.4614 31.3958ZM22.7169 3.91668V0.783336C22.7169 0.350543 23.0675 0 23.5003 0C23.933 0 24.2836 0.350543 24.2836 0.783336V3.91668C24.2836 4.34947 23.933 4.70001 23.5003 4.70001C23.0675 4.70001 22.7169 4.34947 22.7169 3.91668ZM4.7 23.5254C4.7 23.9582 4.34946 24.3087 3.91667 24.3087H0.783333C0.350542 24.3087 0 23.9582 0 23.5254C0 23.0926 0.350542 22.742 0.783333 22.742H3.91667C4.34946 22.742 4.7 23.0926 4.7 23.5254ZM47 23.5254C47 23.9582 46.6495 24.3087 46.2167 24.3087H43.0833C42.6505 24.3087 42.3 23.9582 42.3 23.5254C42.3 23.0926 42.6505 22.742 43.0833 22.742H46.2167C46.6495 22.742 47 23.0926 47 23.5254ZM10.2066 36.8188C10.5121 37.1243 10.5121 37.6198 10.2066 37.9272L7.99175 40.144C7.839 40.2968 7.63926 40.3731 7.43753 40.3731C7.23778 40.3731 7.03607 40.2968 6.88331 40.144C6.5778 39.8385 6.5778 39.343 6.88331 39.0356L9.0982 36.8188C9.40369 36.5113 9.90118 36.5113 10.2066 36.8188ZM41.1524 5.84782C41.4579 6.15332 41.4579 6.6488 41.1524 6.95622L38.9376 9.17307C38.7848 9.32386 38.5831 9.40024 38.3833 9.40024C38.1836 9.40024 37.9819 9.32386 37.8291 9.17111C37.5236 8.86561 37.5236 8.37013 37.8291 8.06271L40.044 5.84586C40.3495 5.54035 40.847 5.54036 41.1524 5.84782ZM8.06244 9.17112L5.8456 6.95622C5.54009 6.65072 5.54009 6.15524 5.8456 5.84782C6.1511 5.54232 6.64658 5.54232 6.95399 5.84782L9.17084 8.06272C9.47634 8.36822 9.47634 8.8637 9.17084 9.17112C9.01809 9.32387 8.81638 9.40024 8.61662 9.40024C8.41685 9.40024 8.21521 9.32387 8.06244 9.17112ZM40.1167 39.0336C40.4222 39.3391 40.4222 39.8346 40.1167 40.142C39.9639 40.2948 39.7642 40.3711 39.5625 40.3711C39.3627 40.3711 39.161 40.2948 39.0082 40.142L36.7934 37.9271C36.4879 37.6216 36.4879 37.1261 36.7934 36.8187C37.0989 36.5132 37.5943 36.5132 37.9018 36.8187L40.1167 39.0336Z" fill="currentColor"/>
</svg>

<svg xmlns="http://www.w3.org/2000/svg" width="40" height="40" fill="none" viewBox="0 0 47 47"><path fill="currentColor" d="M30.133 24.06q.43-.767.668-1.613h2.1c.432 0 .782-.351.782-.784V19.07a.783.783 0 0 0-.783-.783h-2.1a7.5 7.5 0 0 0-.667-1.614l1.484-1.484a.785.785 0 0 0 0-1.109l-1.83-1.83a.785.785 0 0 0-1.109 0l-1.484 1.484a7.4 7.4 0 0 0-1.614-.668v-2.1a.783.783 0 0 0-.783-.783h-2.593a.783.783 0 0 0-.784.784v2.099q-.844.239-1.611.668l-1.485-1.485a.785.785 0 0 0-1.108 0l-1.831 1.831a.785.785 0 0 0 0 1.109l1.484 1.484a7.4 7.4 0 0 0-.668 1.614h-2.1a.783.783 0 0 0-.784.783v2.593c0 .433.35.784.783.784h2.1q.238.843.667 1.613l-1.484 1.485a.785.785 0 0 0 0 1.108l1.83 1.831a.785.785 0 0 0 1.11 0L19.806 27c.51.285 1.05.509 1.611.667l.002 2.1c0 .433.35.783.784.783h2.593c.432 0 .783-.35.783-.783v-2.1A7.5 7.5 0 0 0 27.194 27l1.484 1.484c.305.305.8.305 1.108 0l1.831-1.831a.785.785 0 0 0 0-1.108zm-.903 2.761-1.369-1.367a.78.78 0 0 0-.993-.094 5.9 5.9 0 0 1-2.218.919.78.78 0 0 0-.637.77v1.934h-1.026v-1.936c0-.376-.266-.7-.636-.77a5.9 5.9 0 0 1-2.217-.919.786.786 0 0 0-.995.095l-1.37 1.366-.724-.722 1.367-1.37a.78.78 0 0 0 .094-.992 5.9 5.9 0 0 1-.918-2.219.78.78 0 0 0-.77-.636h-1.935v-1.026h1.937c.376 0 .7-.267.77-.637.15-.797.46-1.543.918-2.219a.78.78 0 0 0-.094-.992l-1.367-1.37.725-.722 1.369 1.367a.786.786 0 0 0 .995.094 5.9 5.9 0 0 1 2.217-.919.78.78 0 0 0 .636-.77l-.004-1.936h1.026v1.937c0 .376.267.699.637.77.797.15 1.543.46 2.218.918.312.211.729.17.993-.094l1.37-1.367.722.723-1.367 1.369a.78.78 0 0 0-.094.992c.458.678.768 1.424.918 2.22.07.37.394.638.77.638l1.939-.002v1.026H30.18c-.376 0-.7.268-.77.638a5.9 5.9 0 0 1-.918 2.219.78.78 0 0 0 .094.993l1.367 1.369zM23.5 16.45a3.92 3.92 0 0 0-3.917 3.916 3.92 3.92 0 0 0 3.917 3.917 3.92 3.92 0 0 0 3.917-3.917A3.92 3.92 0 0 0 23.5 16.45m0 6.267a2.35 2.35 0 0 1-2.35-2.35 2.35 2.35 0 0 1 2.35-2.35 2.35 2.35 0 0 1 2.35 2.35 2.35 2.35 0 0 1-2.35 2.35m6.71 10.056a14.15 14.15 0 0 0 7.39-12.436c0-7.788-6.325-14.125-14.1-14.125S9.4 12.549 9.4 20.337c0 5.19 2.832 9.954 7.39 12.436.412.223.467.552.45 1.643l-.003.889h-.004a.783.783 0 0 0-.783.783v6.202a.77.77 0 0 0 .076.427A7.78 7.78 0 0 0 23.5 47a7.78 7.78 0 0 0 6.973-4.283.77.77 0 0 0 .077-.427v-6.202a.783.783 0 0 0-.784-.783h-.002l-.002-.89c-.02-1.09.036-1.417.447-1.642m-6.71 12.66c-1.91 0-3.668-.85-4.837-2.285h9.674a6.21 6.21 0 0 1-4.837 2.285m5.483-3.916H18.018v-4.645h10.967zm.478-10.121c-1.304.709-1.282 2.005-1.265 3.045l.004.809h-9.4l.004-.809c.018-1.04.04-2.334-1.265-3.045a12.58 12.58 0 0 1-6.572-11.06c0-6.923 5.623-12.558 12.533-12.558 6.911 0 12.534 5.634 12.534 12.559 0 4.616-2.52 8.852-6.573 11.059m-6.744-27.48V.784a.783.783 0 1 1 1.567 0v3.134a.783.783 0 1 1-1.567 0M4.7 23.527c0 .432-.35.783-.783.783H.783a.783.783 0 1 1 0-1.567h3.134c.432 0 .783.35.783.783m42.3 0c0 .432-.35.783-.783.783h-3.134a.783.783 0 1 1 0-1.567h3.134c.433 0 .783.35.783.783M10.207 36.818a.785.785 0 0 1 0 1.108l-2.215 2.217a.783.783 0 1 1-1.108-1.108l2.214-2.217a.78.78 0 0 1 1.109 0M41.152 5.848a.785.785 0 0 1 0 1.108l-2.214 2.217a.79.79 0 0 1-1.109-.002.785.785 0 0 1 0-1.108l2.215-2.217a.783.783 0 0 1 1.108.002M8.062 9.17 5.846 6.956a.785.785 0 0 1 1.108-1.108l2.217 2.215A.785.785 0 0 1 8.062 9.17m32.055 29.863a.785.785 0 0 1-1.109 1.108l-2.215-2.215a.785.785 0 0 1 1.109-1.108z"/></svg>
